X:6097
T:Sleep Soond ida Moarnin
O:england
M:4/4
L:1/8
R:Reel
K:Am
BG|"Am"A a2g a2ef|"G"gedB GABG|"Am"A a2ga2ef|"G"gedB "Am"A2:||AB|"Am"cA
eA cAeA|"G/Em"BcdB G2AB|"Am"cAeA cAeA|"G"BAGB "Am"A2 AB|"Am"cAeA cAeA|"
G"B
cdB G3B|"Am"ABcd efga|"G"gedB "Am"A2||


